X: 41
T: The tempelhouse jig
C: anon.
O: Ireland
B: Francis O'Neill: "The Dance Music of Ireland" (1907) no. 41
R: Double jig
Z: Transcribed by Frank Nordberg - http://www.musicaviva.com
F: http://www.musicaviva.com/abc/tunes/ireland/oneill-1001/oneill-1001-004
1.abc
M: 6/8
L: 1/8
Q: 3/8=128
K: Em
D|(EF)E G2(A|B)AB G2E|DED FEF|(A/B/d)(B A)FD|\
(EF)E G2(A|B)AB (gf)e|dBA GB(A|G)EE E2:: f|ggg eee|
gfg efg|fff ddd|fef def|[1ggg eee|gfg edB|dBA GB(A|G)EE E2:|[2gfg aga|\
bge edB|dBA GB(A|G)EEE2|]
W:
W:
W: From Musica Viva - http://www.musicaviva.com
W: the Internet center for free sheet music downloads.


